X: 22986
T: Lasses Of Fregenal, The
R: reel
M: 4/4
K: Gmajor
GA|:B2AB G3c|BG(3GGG AGEG|DB2A G2(3Bcd|edgB- BBAG|
B2AB G3c|Bdgf- ffef|gfdB- BBAB|cE(3EEE G2FG:|
AE(3EEE D2DF|GE(3EEE C2B,C|DEGF- FFEF|G2FG A2GA|
AE(3EEE D2DF|GE(3EEE C2B,C|DEGF- FFEF|G2FG A2GA||

